modules/stroke-7/icons/door-lock.svg

<?xml version="1.0" encoding="utf-8"?>
<!-- Generated by IcoMoon.io -->
<!DOCTYPE svg PUBLIC "-//W3C//DTD SVG 1.1//EN" "http://www.w3.org/Graphics/SVG/1.1/DTD/svg11.dtd">
<svg version="1.1" xmlns="http://www.w3.org/2000/svg" xmlns:xlink="http://www.w3.org/1999/xlink" width="27" height="32" viewBox="0 0 27 32">
<g id="icomoon-ignore">
</g>
<path d="M13.333 2.667c-7.36 0-13.333 5.973-13.333 13.333s5.973 13.333 13.333 13.333c7.36 0 13.333-5.973 13.333-13.333s-5.973-13.333-13.333-13.333zM13.333 28.267c-6.773 0-12.267-5.493-12.267-12.267s5.493-12.267 12.267-12.267c6.773 0 12.267 5.493 12.267 12.267s-5.493 12.267-12.267 12.267z" fill="#000000"></path>
<path d="M17.6 12.8c0-2.347-1.92-4.267-4.267-4.267s-4.267 1.92-4.267 4.267c0 1.6 0.907 3.040 2.24 3.733l-2.24 6.4h8.533l-2.187-6.4c1.28-0.747 2.187-2.133 2.187-3.733zM16.107 21.867h-5.547l1.707-4.96 0.32-0.853-0.8-0.427c-1.013-0.587-1.653-1.653-1.653-2.827 0-1.76 1.44-3.2 3.2-3.2s3.2 1.44 3.2 3.2c0 1.173-0.64 2.24-1.653 2.773l-0.8 0.427 0.267 0.853 1.76 5.013z" fill="#000000"></path>
</svg>

<svg xmlns="http://www.w3.org/2000/svg" width="27" height="32"><path d="M13.333 2.667C5.973 2.667 0 8.64 0 16s5.973 13.333 13.333 13.333S26.666 23.36 26.666 16 20.693 2.667 13.333 2.667zm0 25.6C6.56 28.267 1.066 22.774 1.066 16S6.559 3.733 13.333 3.733C20.106 3.733 25.6 9.226 25.6 16s-5.493 12.267-12.267 12.267z"/><path d="M17.6 12.8c0-2.347-1.92-4.267-4.267-4.267s-4.267 1.92-4.267 4.267c0 1.6.907 3.04 2.24 3.733l-2.24 6.4h8.533l-2.187-6.4c1.28-.747 2.187-2.133 2.187-3.733zm-1.493 9.067H10.56l1.707-4.96.32-.853-.8-.427a3.273 3.273 0 0 1-1.653-2.827c0-1.76 1.44-3.2 3.2-3.2s3.2 1.44 3.2 3.2c0 1.173-.64 2.24-1.653 2.773l-.8.427.267.853 1.76 5.013z"/></svg>
